X: 131
T: Miss Murray of Murrayfield's Strathspey
R: strathspey
Q: "Slow"
B: William Shepherd "1st Collection" 1793 p.13 #1
F: http://imslp.org/wiki/File:PMLP73094-Shepherd_Collections_HMT.pdf
C: William Shepherd (17??-1812)
Z: 2012 John Chambers <jc:trillian.mit.edu>
M: C
L: 1/8
K: F
c/B/ |\
A>F {G}FE/F/ CFA,F | BG {B}AG/F/ [EC]G Gc/B/ |\
A>F {G}FE/F/ CFA,F | B,d/c/ B/A/G/F/ CF Fc/B/ |
A>F {G}FE/F/ CFA,F | B,G/A/ B/A/G/F/ EG Gc/B/ |\
A>F {G}FE/F/ CFAc | BG A/B/c/B/ ATFFf ||
cf {g}Tf.e/.f/ cfAf | cf {b}ag/f/ egga |\
cf {g}Tf.e/.f/ cfAf | BdGE CFFf |
cf {g}Tf.e/.f/ cfAf | cf {b}ag/f/ egga/b/ |\
afdg cfAF | BG A/B/c/B/ ATFF |]
